dist/assets/toolkit/images/soccer.svg

<?xml version="1.0" encoding="UTF-8"?>
<svg width="48px" height="41px" viewBox="0 0 48 41" version="1.1" xmlns="http://www.w3.org/2000/svg" xmlns:xlink="http://www.w3.org/1999/xlink">
    <!-- Generator: sketchtool 42 (36781) - http://www.bohemiancoding.com/sketch -->
    <title>B62856D0-9693-4E35-9AA0-FFDA054A469B</title>
    <desc>Created with sketchtool.</desc>
    <defs></defs>
    <g id="Page-1" stroke="none" stroke-width="1" fill="none" fill-rule="evenodd">
        <g id="search" transform="translate(-100.000000, -45.000000)" fill="#FFFFFF">
            <g id="Logo" transform="translate(100.000000, 45.000000)">
                <g id="soccer">
                    <path d="M26.8249091,5.47511842 C27.0343636,5.47511842 27.2438182,5.39635526 27.4036364,5.23828947 L31.1072727,1.57526316 C31.4269091,1.25967105 31.4269091,0.746631579 31.1072727,0.431039474 C30.7876364,0.114907895 30.27,0.114907895 29.9503636,0.431039474 L26.2467273,4.09406579 C25.9270909,4.40965789 25.9270909,4.92269737 26.2467273,5.23828947 C26.406,5.39635526 26.6154545,5.47511842 26.8249091,5.47511842 L26.8249091,5.47511842 Z" id="Shape"></path>
                    <path d="M30.4025455,9.34907895 C30.5623636,9.50714474 30.7718182,9.58590789 30.9812727,9.58590789 C31.1907273,9.58590789 31.4001818,9.50714474 31.56,9.34907895 L35.7381818,5.21671053 C36.0578182,4.90111842 36.0578182,4.38861842 35.7381818,4.07248684 C35.4185455,3.75635526 34.9009091,3.75635526 34.5812727,4.07248684 L30.4030909,8.20485526 C30.0829091,8.52044737 30.0829091,9.03294737 30.4025455,9.34907895 L30.4025455,9.34907895 Z" id="Shape"></path>
                    <path d="M37.1721818,3.46288158 C37.3816364,3.46288158 37.5910909,3.38411842 37.7509091,3.22605263 L39.5563636,1.44039474 C39.876,1.12480263 39.876,0.611763158 39.5563636,0.296171053 C39.2367273,-0.0199605263 38.7190909,-0.0199605263 38.3994545,0.296171053 L36.594,2.08182895 C36.2743636,2.39742105 36.2743636,2.91046053 36.594,3.22605263 C36.7538182,3.38357895 36.9632727,3.46288158 37.1721818,3.46288158 L37.1721818,3.46288158 Z" id="Shape"></path>
                    <path d="M47.5849091,0.576697368 C47.2652727,0.260565789 46.7476364,0.260565789 46.428,0.576697368 L34.5589091,12.3156447 C34.2392727,12.6312368 34.2392727,13.1442763 34.5589091,13.4598684 C34.7187273,13.6179342 34.9281818,13.6966974 35.1376364,13.6966974 C35.3470909,13.6966974 35.5565455,13.6179342 35.7163636,13.4598684 L47.5854545,1.72092105 C47.9045455,1.40478947 47.9045455,0.892289474 47.5849091,0.576697368 L47.5849091,0.576697368 Z" id="Shape"></path>
                    <path d="M34.0549091,22.3520132 C33.8732727,20.3958816 33.3567273,18.5125789 32.5194545,16.7549737 C32.5189091,16.7538947 32.5189091,16.7533553 32.5183636,16.7522763 C31.6903636,15.0043816 30.5629091,13.41725 29.1709091,12.0410526 C28.8883636,11.7551316 28.6150909,11.5042763 28.3554545,11.2895658 C27.5607273,10.5925658 26.6896364,9.96353947 25.7650909,9.41975 C25.764,9.41921053 25.7634545,9.41867105 25.7629091,9.41813158 C25.2409091,9.11332895 24.7363636,8.85168421 24.2214545,8.61917105 C22.7263636,7.93889474 21.1385455,7.48088158 19.5005455,7.25753947 C19.1241818,7.20682895 18.7478182,7.16744737 18.3643636,7.13885526 C18.0447273,7.11619737 17.706,7.18578947 17.4223636,7.18255263 C16.3412727,7.15989474 15.2530909,6.96406579 14.1910909,7.50353947 L14.1834545,7.50353947 C12.0234545,7.50353947 9.98836364,8.43467105 8.13981818,9.57781579 C7.24636364,10.1216053 6.39,10.7403816 5.59527273,11.2798553 L5.59472727,11.2798553 C5.59418182,11.2798553 5.59363636,11.4060921 5.59309091,11.4066316 C5.59145455,11.40825 5.58927273,11.4724474 5.58709091,11.4746053 C5.58654545,11.4751447 5.58654545,11.5069737 5.586,11.5069737 C5.41418182,11.6596447 5.24290909,11.8333553 5.07763636,11.9973553 C5.00072727,12.0734211 4.91945455,12.1635132 4.84690909,12.2509079 C3.564,13.5639868 2.43436364,15.0561711 1.65872727,16.6762105 C0.896181818,18.2466184 0.610909091,19.9216842 0.0654545455,21.6469211 L0.0654545455,21.648 C0.0654545455,22.5947763 -0.0267272727,23.5696053 0.00872727273,24.5649342 L0.0845454545,25.1400132 C0.201272727,26.8172368 0.585818182,28.4378158 1.18309091,29.9591316 C1.18363636,29.9602105 1.194,29.9612895 1.19454545,29.9629079 C1.19563636,29.9661447 1.20272727,29.9693816 1.20381818,29.9726184 C1.20490909,29.9753158 1.20818182,29.9785526 1.20927273,29.98125 C1.20981818,29.9817895 1.21145455,29.9828684 1.212,29.9834079 C1.34672727,30.3480921 1.50763636,30.7230263 1.70345455,31.1287105 C2.38145455,32.5442895 3.25745455,33.8584474 4.32327273,35.0544605 C4.35981818,35.0970789 4.39690909,35.1380789 4.43672727,35.1774605 C4.62272727,35.3964868 4.83109091,35.6203684 5.05527273,35.8420921 C6.12054545,36.8956842 7.32109091,37.8052368 8.64109091,38.5545658 C8.70163636,38.5890921 8.76218182,38.622 8.82272727,38.6532895 C8.82490909,38.6543684 8.82709091,38.6565263 8.82927273,38.6576053 C10.9609091,39.8363553 13.3898182,40.5500789 15.8481818,40.7216316 C16.248,40.7518421 16.6538182,40.7669474 17.0601818,40.7669474 C17.2636364,40.7669474 17.4676364,40.7626316 17.6705455,40.7556184 C17.6727273,40.7556184 17.6749091,40.7550789 17.6770909,40.7545395 C19.5801818,40.6962763 21.4385455,40.3288947 23.2009091,39.6615658 C23.4714545,39.5596053 23.7409091,39.4506316 24.0114545,39.3319474 C24.0376364,39.3200789 24.0632727,39.3071316 24.0878182,39.2931053 C25.7383636,38.5648158 27.2563636,37.5765 28.6003636,36.3545921 C28.6221818,36.3367895 28.644,36.3152105 28.6652727,36.29525 C28.8147273,36.1717105 28.9625455,36.0314474 29.0885455,35.9014342 L29.0421818,35.8539605 C31.1481818,33.7764474 32.7916364,31.1896711 33.3370909,28.3730789 L33.3370909,28.372 C33.3370909,28.3714605 33.3370909,28.5424737 33.3370909,28.5424737 L33.432,28.5424737 L33.4794545,28.5424737 C33.6376364,28.003 33.7865455,27.3092368 33.8754545,26.7546579 C33.8770909,26.7449474 33.8901818,26.6926184 33.8912727,26.6829079 C34.1078182,25.4016579 34.1738182,24.0589079 34.0772727,22.7544605 C34.0723636,22.6298421 34.0663636,22.4777105 34.0549091,22.3520132 L34.0549091,22.3520132 Z M28.0085455,13.1793421 C29.1676364,14.3257237 30.1101818,15.6339474 30.8367273,17.0597763 L27.6381818,22.1459342 L23.0929091,22.5839868 L18.8029091,18.0184211 L19.3783636,13.9631974 L25.698,11.4195789 C25.7296364,11.4071711 25.7536364,11.3845132 25.7830909,11.3688684 C26.3029091,11.7227632 26.8101818,12.0971579 27.2874545,12.5157895 C27.5241818,12.7116184 27.7581818,12.9263289 28.0085455,13.1793421 L28.0085455,13.1793421 Z M8.53472727,30.4489737 L2.60127273,29.0058816 C2.14472727,27.7435132 1.85563636,26.4110132 1.76018182,25.0385921 L1.728,24.4904868 C1.70236364,23.7595 1.74,23.0339079 1.81527273,22.3201842 L7.19618182,20.1525789 L10.6952727,21.8087632 L11.436,27.8956447 L8.53472727,30.4489737 L8.53472727,30.4489737 Z M9.00218182,10.9950132 C10.5458182,10.0406842 12.2307273,9.38036842 14.0138182,9.02 L17.7992727,13.4517763 L17.1916364,17.7330395 L11.4425455,20.3678289 L7.91563636,18.6986974 L7.43236364,12.1861711 C7.43072727,12.1613553 7.41927273,12.1397763 7.41545455,12.1155 C7.92381818,11.7060395 8.45345455,11.3289474 9.00218182,10.9950132 L9.00218182,10.9950132 Z M10.0112727,37.4437895 L9.58309091,31.6935395 L12.4914545,29.1348158 L18.7456364,30.3567237 L20.0803636,33.825 L16.7432727,39.14475 C16.4841818,39.1393553 16.2250909,39.1280263 15.9681818,39.1086053 C13.8578182,38.9607895 11.8570909,38.3975789 10.0112727,37.4437895 L10.0112727,37.4437895 Z M28.1678182,34.5122895 L21.468,32.8830789 L20.2363636,29.6818421 L23.3356364,24.1873026 L27.8994545,23.7476316 L31.8256364,28.3466447 C31.1290909,30.6501974 29.874,32.7681711 28.1678182,34.5122895 L28.1678182,34.5122895 Z" id="Shape"></path>
                </g>
            </g>
        </g>
    </g>
</svg>

<svg width="48" height="41" viewBox="0 0 48 41" xmlns="http://www.w3.org/2000/svg"><title>B62856D0-9693-4E35-9AA0-FFDA054A469B</title><g fill="#FFF" fill-rule="evenodd"><path d="M26.825 5.475a.82.82 0 0 0 .579-.237l3.703-3.663a.803.803 0 0 0 0-1.144.824.824 0 0 0-1.157 0l-3.703 3.663a.803.803 0 0 0 0 1.144c.159.158.368.237.578.237zM30.403 9.35a.82.82 0 0 0 .578.236.82.82 0 0 0 .579-.237l4.178-4.132a.803.803 0 0 0 0-1.145.824.824 0 0 0-1.157 0l-4.178 4.133a.802.802 0 0 0 0 1.144zM37.172 3.463a.82.82 0 0 0 .579-.237l1.805-1.786a.803.803 0 0 0 0-1.144.824.824 0 0 0-1.157 0l-1.805 1.786a.803.803 0 0 0 0 1.144c.16.158.37.237.578.237zM47.585.577a.824.824 0 0 0-1.157 0l-11.87 11.739a.803.803 0 0 0 0 1.144.82.82 0 0 0 .58.237.82.82 0 0 0 .578-.237l11.87-11.74a.803.803 0 0 0-.001-1.143zM34.055 22.352a16.525 16.525 0 0 0-1.536-5.597v-.003a16.62 16.62 0 0 0-3.348-4.71 11.112 11.112 0 0 0-.816-.752 17.03 17.03 0 0 0-2.592-1.872 16.902 16.902 0 0 0-6.262-2.16c-.377-.051-.753-.09-1.137-.12-.32-.022-.658.048-.942.045-1.08-.023-2.169-.219-3.23.32h-.009c-2.16 0-4.195.932-6.043 2.075-.894.544-1.75 1.162-2.545 1.702l-.002.127c-.002.001-.004.065-.006.068l-.001.032c-.172.153-.343.326-.508.49a3.611 3.611 0 0 0-.231.254c-1.283 1.313-2.413 2.805-3.188 4.425-.763 1.57-1.048 3.246-1.594 4.97v.002c0 .947-.092 1.922-.056 2.917l.076.575a16.278 16.278 0 0 0 1.098 4.82s.011.001.012.003c0 .003.008.006.009.01 0 .002.004.006.005.008l.003.002c.135.365.296.74.491 1.146a16.788 16.788 0 0 0 2.734 4.048c.186.22.394.443.618.665a17.076 17.076 0 0 0 3.768 2.811l.006.005a17.055 17.055 0 0 0 7.02 2.064 16.117 16.117 0 0 0 1.822.034l.006-.001a17.033 17.033 0 0 0 6.334-1.423.919.919 0 0 0 .077-.039 16.748 16.748 0 0 0 4.512-2.938c.022-.018.044-.04.065-.06a5.38 5.38 0 0 0 .424-.394l-.047-.047c2.106-2.078 3.75-4.664 4.295-7.48v-.002.17H33.48c.159-.539.308-1.233.396-1.787.002-.01.015-.062.016-.072.217-1.281.283-2.624.186-3.929a8.364 8.364 0 0 0-.022-.402zm-6.046-9.173a15.044 15.044 0 0 1 2.828 3.88l-3.199 5.087-4.545.438-4.29-4.566.575-4.055 6.32-2.543c.032-.013.056-.035.085-.051.52.354 1.027.728 1.504 1.147.237.196.471.41.722.663zM8.535 30.45L2.6 29.006a14.648 14.648 0 0 1-.84-3.967l-.033-.549a15.51 15.51 0 0 1 .087-2.17l5.381-2.167 3.5 1.656.74 6.087-2.901 2.553zm.467-19.454a15.224 15.224 0 0 1 5.012-1.975l3.785 4.432-.607 4.281-5.75 2.635-3.526-1.67-.484-6.512c-.001-.025-.013-.046-.017-.07.509-.41 1.038-.787 1.587-1.121zm1.01 26.449l-.429-5.75 2.908-2.56 6.255 1.223 1.334 3.468-3.337 5.32c-.259-.006-.518-.017-.775-.036a15.207 15.207 0 0 1-5.957-1.665zm18.156-2.932l-6.7-1.629-1.232-3.201 3.1-5.495 4.563-.44 3.927 4.6a15.065 15.065 0 0 1-3.658 6.165z"/></g></svg>
